twotone/svg/panorama_wide_angle.svg

<svg xmlns="http://www.w3.org/2000/svg" width="24" height="24"><path fill="none" d="M0 0h24v24H0V0z"/><g fill="currentColor"><path opacity=".3" d="M12 6c-2.45 0-4.71.2-7.29.64A21 21 0 0 0 4 12a21 21 0 0 0 .71 5.36c2.58.44 4.84.64 7.29.64s4.71-.2 7.29-.64A21 21 0 0 0 20 12a21 21 0 0 0-.71-5.36C16.71 6.2 14.45 6 12 6z"/><path d="M21.13 5.78l-.25-.89-.93-.16C17.22 4.24 14.73 4 12 4s-5.22.24-7.95.72l-.93.16-.25.9C2.29 7.85 2 9.93 2 12s.29 4.15.87 6.22l.25.89.93.16c2.73.49 5.22.73 7.95.73s5.22-.24 7.95-.72l.93-.16.25-.89c.58-2.08.87-4.16.87-6.23s-.29-4.15-.87-6.22zm-1.84 11.58c-2.58.44-4.84.64-7.29.64s-4.71-.2-7.29-.64A21 21 0 0 1 4 12a21 21 0 0 1 .71-5.36C7.29 6.2 9.55 6 12 6s4.71.2 7.29.64A21 21 0 0 1 20 12a21 21 0 0 1-.71 5.36z"/></g></svg>

<?xml version="1.0" encoding="utf-8"?>
<!-- Generator: Adobe Illustrator 19.1.0, SVG Export Plug-In . SVG Version: 6.00 Build 0)  -->
<svg version="1.1" xmlns="http://www.w3.org/2000/svg" xmlns:xlink="http://www.w3.org/1999/xlink" x="0px" y="0px" width="24px"
	 height="24px" viewBox="0 0 24 24" enable-background="new 0 0 24 24" xml:space="preserve">
<g id="Bounding_Boxes">
	<g id="ui_x5F_spec_x5F_header_copy_2">
	</g>
	<path fill="none" d="M0,0h24v24H0V0z"/>
</g>
<g id="Duotone" fill="currentColor">
	<g id="ui_x5F_spec_x5F_header_copy_3">
	</g>
	<g>
		<path opacity="0.3" d="M12,6C9.55,6,7.29,6.2,4.71,6.64C4.24,8.42,4,10.22,4,12c0,1.78,0.24,3.58,0.71,5.36
			C7.29,17.8,9.55,18,12,18s4.71-0.2,7.29-0.64C19.76,15.58,20,13.78,20,12c0-1.78-0.24-3.58-0.71-5.36C16.71,6.2,14.45,6,12,6z"/>
		<path d="M21.13,5.78l-0.25-0.89l-0.93-0.16C17.22,4.24,14.73,4,12,4S6.78,4.24,4.05,4.72L3.12,4.88l-0.25,0.9
			C2.29,7.85,2,9.93,2,12s0.29,4.15,0.87,6.22l0.25,0.89l0.93,0.16C6.78,19.76,9.27,20,12,20s5.22-0.24,7.95-0.72l0.93-0.16
			l0.25-0.89C21.71,16.15,22,14.07,22,12S21.71,7.85,21.13,5.78z M19.29,17.36C16.71,17.8,14.45,18,12,18s-4.71-0.2-7.29-0.64
			C4.24,15.58,4,13.78,4,12c0-1.78,0.24-3.58,0.71-5.36C7.29,6.2,9.55,6,12,6s4.71,0.2,7.29,0.64C19.76,8.42,20,10.22,20,12
			C20,13.78,19.76,15.58,19.29,17.36z"/>
	</g>
</g>
</svg>
